icons/hicolor/scalable/apps/ea.svg

<?xml version="1.0" encoding="UTF-8" standalone="no"?>
<svg
   width="696.06726pt"
   height="696.09998pt"
   viewBox="0 0 696.06726 696.09998"
   version="1.1"
   id="svg3"
   sodipodi:docname="ea.svg"
   inkscape:version="1.4.2 (ebf0e940d0, 2025-05-08)"
   xmlns:inkscape="http://www.inkscape.org/namespaces/inkscape"
   xmlns:sodipodi="http://sodipodi.sourceforge.net/DTD/sodipodi-0.dtd"
   xmlns="http://www.w3.org/2000/svg"
   xmlns:svg="http://www.w3.org/2000/svg">
  <defs
     id="defs3" />
  <sodipodi:namedview
     id="namedview3"
     pagecolor="#505050"
     bordercolor="#ffffff"
     borderopacity="1"
     inkscape:showpageshadow="0"
     inkscape:pageopacity="0"
     inkscape:pagecheckerboard="1"
     inkscape:deskcolor="#505050"
     inkscape:document-units="pt"
     inkscape:zoom="0.31930291"
     inkscape:cx="211.39801"
     inkscape:cy="508.92114"
     inkscape:window-width="1920"
     inkscape:window-height="1052"
     inkscape:window-x="0"
     inkscape:window-y="0"
     inkscape:window-maximized="1"
     inkscape:current-layer="svg3" />
  <g
     id="#ffffffff"
     transform="translate(-291.94676,-11.949506)">
    <path
       fill="#ffffff"
       opacity="1"
       d="m 501.23,223.05 c 66.73,-0.11 133.45,-0.04 200.17,-0.03 -10.11,16.25 -20.18,32.54 -30.48,48.68 -66.65,-0.08 -133.3,-0.01 -199.96,-0.03 10.04,-16.24 20.27,-32.36 30.27,-48.62 z"
       id="path1" />
    <path
       fill="#ffffff"
       opacity="1"
       d="m 619.4,417.63 c 40.56,-64.87 81.05,-129.77 121.6,-194.64 50.64,81.1 101.39,162.14 152,243.27 -19.08,0.07 -38.16,-0.05 -57.24,0.06 -10.27,-16.16 -20.36,-32.42 -30.52,-48.64 -29.64,-0.01 -59.27,-0.02 -88.91,0 10.22,-16.21 20.24,-32.54 30.56,-48.69 9.33,0 18.66,0.04 27.98,-0.02 -11.26,-18.07 -22.61,-36.08 -33.87,-54.15 -31.57,50.51 -63.05,101.06 -94.74,151.49 -84.08,-0.11 -168.17,0.05 -252.25,-0.08 20.2,-32.43 40.48,-64.81 60.74,-97.21 -14.87,-0.05 -29.74,-0.01 -44.61,-0.02 10.13,-16.21 20.24,-32.44 30.37,-48.65 65.05,-0.06 130.1,0.03 195.15,-0.04 -10.19,16.2 -20.23,32.5 -30.43,48.7 -31.01,-0.02 -62.02,0 -93.03,-0.02 -10.08,16.26 -20.33,32.42 -30.36,48.71 45.85,-0.1 91.7,0.05 137.56,-0.07 z"
       id="path2" />
  </g>
  <g
     id="#ff4747ff"
     transform="translate(-291.94676,-11.949506)">
    <path
       fill="#ff4747"
       opacity="1"
       d="m 620.4,12.49 c 47.72,-2.65 96.01,4.45 140.81,21.18 68.42,25.24 128.26,72.8 168.6,133.53 37.52,56.07 58.08,123.32 58.19,190.79 0.53,58.11 -13.95,116.28 -41.65,167.36 -22.54,41.69 -53.67,78.72 -90.92,108.03 -45.22,35.81 -99.53,60.03 -156.4,69.67 -46.78,7.99 -95.2,6.41 -141.32,-4.79 C 483.77,680.54 416.3,637.48 368.8,578.16 345.33,549.1 326.61,516.2 313.61,481.18 296.21,434.42 289.22,383.89 292.9,334.16 297.5,269.52 320.82,206.38 359.27,154.22 389.53,112.93 429,78.43 474.01,54.02 518.91,29.53 569.33,15.28 620.4,12.49 M 501.23,223.05 c -10,16.26 -20.23,32.38 -30.27,48.62 66.66,0.02 133.31,-0.05 199.96,0.03 10.3,-16.14 20.37,-32.43 30.48,-48.68 -66.72,-0.01 -133.44,-0.08 -200.17,0.03 M 619.4,417.63 c -45.86,0.12 -91.71,-0.03 -137.56,0.07 10.03,-16.29 20.28,-32.45 30.36,-48.71 31.01,0.02 62.02,0 93.03,0.02 10.2,-16.2 20.24,-32.5 30.43,-48.7 -65.05,0.07 -130.1,-0.02 -195.15,0.04 -10.13,16.21 -20.24,32.44 -30.37,48.65 14.87,0.01 29.74,-0.03 44.61,0.02 -20.26,32.4 -40.54,64.78 -60.74,97.21 84.08,0.13 168.17,-0.03 252.25,0.08 31.69,-50.43 63.17,-100.98 94.74,-151.49 11.26,18.07 22.61,36.08 33.87,54.15 -9.32,0.06 -18.65,0.02 -27.98,0.02 -10.32,16.15 -20.34,32.48 -30.56,48.69 29.64,-0.02 59.27,-0.01 88.91,0 10.16,16.22 20.25,32.48 30.52,48.64 19.08,-0.11 38.16,0.01 57.24,-0.06 C 842.39,385.13 791.64,304.09 741,222.99 700.45,287.86 659.96,352.76 619.4,417.63 Z"
       id="path3" />
  </g>
</svg>

<?xml version="1.0" encoding="UTF-8" ?>
<!DOCTYPE svg PUBLIC "-//W3C//DTD SVG 1.1//EN" "http://www.w3.org/Graphics/SVG/1.1/DTD/svg11.dtd">
<svg width="1280pt" height="720pt" viewBox="0 0 1280 720" version="1.1" xmlns="http://www.w3.org/2000/svg">
<g id="#ffffffff">
<path fill="#ffffff" opacity="1.00" d=" M 501.23 223.05 C 567.96 222.94 634.68 223.01 701.40 223.02 C 691.29 239.27 681.22 255.56 670.92 271.70 C 604.27 271.62 537.62 271.69 470.96 271.67 C 481.00 255.43 491.23 239.31 501.23 223.05 Z" />
<path fill="#ffffff" opacity="1.00" d=" M 619.40 417.63 C 659.96 352.76 700.45 287.86 741.00 222.99 C 791.64 304.09 842.39 385.13 893.00 466.26 C 873.92 466.33 854.84 466.21 835.76 466.32 C 825.49 450.16 815.40 433.90 805.24 417.68 C 775.60 417.67 745.97 417.66 716.33 417.68 C 726.55 401.47 736.57 385.14 746.89 368.99 C 756.22 368.99 765.55 369.03 774.87 368.97 C 763.61 350.90 752.26 332.89 741.00 314.82 C 709.43 365.33 677.95 415.88 646.26 466.31 C 562.18 466.20 478.09 466.36 394.01 466.23 C 414.21 433.80 434.49 401.42 454.75 369.02 C 439.88 368.97 425.01 369.01 410.14 369.00 C 420.27 352.79 430.38 336.56 440.51 320.35 C 505.56 320.29 570.61 320.38 635.66 320.31 C 625.47 336.51 615.43 352.81 605.23 369.01 C 574.22 368.99 543.21 369.01 512.20 368.99 C 502.12 385.25 491.87 401.41 481.84 417.70 C 527.69 417.60 573.54 417.75 619.40 417.63 Z" />
</g>
<g id="#ff4747ff">
<path fill="#ff4747" opacity="1.00" d=" M 620.40 12.49 C 668.12 9.84 716.41 16.94 761.21 33.67 C 829.63 58.91 889.47 106.47 929.81 167.20 C 967.33 223.27 987.89 290.52 988.00 357.99 C 988.53 416.10 974.05 474.27 946.35 525.35 C 923.81 567.04 892.68 604.07 855.43 633.38 C 810.21 669.19 755.90 693.41 699.03 703.05 C 652.25 711.04 603.83 709.46 557.71 698.26 C 483.77 680.54 416.30 637.48 368.80 578.16 C 345.33 549.10 326.61 516.20 313.61 481.18 C 296.21 434.42 289.22 383.89 292.90 334.16 C 297.50 269.52 320.82 206.38 359.27 154.22 C 389.53 112.93 429.00 78.43 474.01 54.02 C 518.91 29.53 569.33 15.28 620.40 12.49 M 501.23 223.05 C 491.23 239.31 481.00 255.43 470.96 271.67 C 537.62 271.69 604.27 271.62 670.92 271.70 C 681.22 255.56 691.29 239.27 701.40 223.02 C 634.68 223.01 567.96 222.94 501.23 223.05 M 619.40 417.63 C 573.54 417.75 527.69 417.60 481.84 417.70 C 491.87 401.41 502.12 385.25 512.20 368.99 C 543.21 369.01 574.22 368.99 605.23 369.01 C 615.43 352.81 625.47 336.51 635.66 320.31 C 570.61 320.38 505.56 320.29 440.51 320.35 C 430.38 336.56 420.27 352.79 410.14 369.00 C 425.01 369.01 439.88 368.97 454.75 369.02 C 434.49 401.42 414.21 433.80 394.01 466.23 C 478.09 466.36 562.18 466.20 646.26 466.31 C 677.95 415.88 709.43 365.33 741.00 314.82 C 752.26 332.89 763.61 350.90 774.87 368.97 C 765.55 369.03 756.22 368.99 746.89 368.99 C 736.57 385.14 726.55 401.47 716.33 417.68 C 745.97 417.66 775.60 417.67 805.24 417.68 C 815.40 433.90 825.49 450.16 835.76 466.32 C 854.84 466.21 873.92 466.33 893.00 466.26 C 842.39 385.13 791.64 304.09 741.00 222.99 C 700.45 287.86 659.96 352.76 619.40 417.63 Z" />
</g>
</svg>
